packages/tokens/icons/thumbsUp/size32Px.svg

<svg viewBox="0 0 32 32" fill="none" xmlns="http://www.w3.org/2000/svg" width="1em" height="1em"><path d="M4.5 11C4.5 10.7239 4.72386 10.5 5 10.5H9C9.82843 10.5 10.5 11.1716 10.5 12L10.5 22C10.5 22.8284 9.82843 23.5 9 23.5H5C4.72386 23.5 4.5 23.2761 4.5 23L4.5 11Z" stroke="currentColor"/><circle cx="8.5" cy="21.5" r="0.25" stroke="currentColor" stroke-width="0.5"/><path d="M22 23.5H15.7935C15.5989 23.5 15.4053 23.4716 15.2188 23.4157L10.5 22" stroke="currentColor"/><path d="M19.5 11.0005C19.2239 11.0005 19 11.2243 19 11.5005C19 11.7766 19.2239 12.0005 19.5 12.0005V11.0005ZM19.5 12.0005L26 12.0005V11.0005L19.5 11.0005V12.0005ZM26 14.0005H23V15.0005H26V14.0005ZM27 13.0005C27 13.5528 26.5523 14.0005 26 14.0005V15.0005C27.1046 15.0005 28 14.1051 28 13.0005H27ZM26 12.0005C26.5523 12.0005 27 12.4482 27 13.0005H28C28 11.8959 27.1046 11.0005 26 11.0005V12.0005Z" fill="currentColor"/><path d="M20.5 14.5005H25.5C26.3284 14.5005 27 15.1721 27 16.0005V16.0005C27 16.8289 26.3284 17.5005 25.5 17.5005H20.5" stroke="currentColor" stroke-linecap="round"/><path d="M21 17.5005H25C25.8284 17.5005 26.5 18.1721 26.5 19.0005V19.0005C26.5 19.8289 25.8284 20.5005 25 20.5005H20.5" stroke="currentColor" stroke-linecap="round"/><path d="M20.5 20.5005H23.5C24.3284 20.5005 25 21.1721 25 22.0005V22.0005C25 22.8289 24.3284 23.5005 23.5 23.5005H19.5" stroke="currentColor" stroke-linecap="round"/><path d="M10.4999 12.5005C13.4999 12.5005 17.4999 9.50065 17.4999 6.94049C17.4999 6.57379 17.4999 6.26208 17.4999 5.99712C17.4999 5.16869 18.1715 4.50047 18.9999 4.50046V4.50046C19.8284 4.50046 20.5 5.17205 20.5 6.0005L20.5 7.42765C20.5 8.79092 20.1826 10.1355 19.5729 11.3548L19.5 11.5007" stroke="currentColor"/></svg>

<svg xmlns="http://www.w3.org/2000/svg" fill="none" viewBox="0 0 32 32" width="1em" height="1em"><path stroke="currentColor" d="M4.5 11a.5.5 0 0 1 .5-.5h4a1.5 1.5 0 0 1 1.5 1.5v10A1.5 1.5 0 0 1 9 23.5H5a.5.5 0 0 1-.5-.5V11Z"/><circle cx="8.5" cy="21.5" r=".25" stroke="currentColor" stroke-width=".5"/><path stroke="currentColor" d="M22 23.5h-6.207c-.194 0-.388-.028-.574-.084L10.5 22"/><path fill="currentColor" d="M19.5 11a.5.5 0 1 0 0 1v-1Zm0 1H26v-1h-6.5v1Zm6.5 2h-3v1h3v-1Zm1-1a1 1 0 0 1-1 1v1a2 2 0 0 0 2-2h-1Zm-1-1a1 1 0 0 1 1 1h1a2 2 0 0 0-2-2v1Z"/><path stroke="currentColor" stroke-linecap="round" d="M20.5 14.5h5A1.5 1.5 0 0 1 27 16v0a1.5 1.5 0 0 1-1.5 1.5h-5m.5 0h4a1.5 1.5 0 0 1 1.5 1.5v0a1.5 1.5 0 0 1-1.5 1.5h-4.5m0 0h3A1.5 1.5 0 0 1 25 22v0a1.5 1.5 0 0 1-1.5 1.5h-4"/><path stroke="currentColor" d="M10.5 12.5c3 0 7-3 7-5.56v-.943a1.5 1.5 0 0 1 3 .003v1.428a8.78 8.78 0 0 1-.927 3.927l-.073.146"/></svg>
